X: 5
T:Jig Owen
T:Owen's Jig
M:6/8
L:1/8
Q:130
S:Cadw Twmpath Collection
R:Jig
A:Wales
Z:brian_martin12345@yahoo.com
K:G
d/c/|B2G Bcd|e2c cde|dBG dBG|F2AA2d/c/|
B2G Bcd|e2c cde|dBG cAF|AGFG2:||
A|B2d gdB|c2e gec|B2d gdB|Ade fed|
B2d gdB|c2e gec|BdB cAF|AGFG2:||
